X:1
T:Weil Gott sein rach hat
T:Conrad Hagius
T:Source : Lobgesänge---Ursell---C.Sutorius---1606. Editor : André Vierendeels (27/05/17).
T:Notes : Original clefs : G2, C2, C3, F3 Original note values habe been halved Editorial accidentals above the staff Text Middle German (Qui sponte obtulistis de Israel animas vestras) (Iudicum 5)
T:Weil Gott sein rach hat
T:©
T:©
T:©
C:Conrad Hagius
Z:©
%%score [ 1 [ 2 3 ] 4 ]
L:1/8
Q:1/4=120
M:2/2
K:F
V:1 treble nm="Soprano" snm="S"
V:2 treble-8 nm="Tenor 1" snm="T 1"
V:3 treble-8 nm="Tenor 2" snm="T 2"
V:4 bass nm="Bass" snm="B"
V:1
"^1)" G4 G2 F2 | A2 B2 G2 G2 | ^F4 z4 | ^F4 G2 G2 | AB c3 B B2- | B2 A2 B4 | z4 B4 | G2 F2 F2 D2 | %8
w: Weil Gott sein|rach hat ge- hen|lahn,|so prei- set|ihn mit süs- * *|* sen thon,|die|ihr vom volck ausz|
w: Hö- ret ihr|kö- nig ausz- er-|korn,|mer- cket ihr|Für- sten hoch ge- bo-|* * ren:|ich|bin, die frö- lich|
 ^F2 G2 A4 | z4 D4 | E2 F2 F2 D2 | A2 G2 ^F4 | z4 A4 | A2 A2 B2 G2 | B2 d2 cB B2- | BA/G/ A2 B4 | %16
w: Is- ra- el,|habt|dar ge- stel- let|e- wer Seel,|habt|wil- lig e- wer|leib und le- * *|* * * * ben,|
w: spie- len will|dem|Her- ren Gott in|Is- ra- el,|mein|stimm soll ihm mit|freu- den klin- * *|* * * * gen,|
 z4 B4 | B2 c2 d2 B2 | A2 G G2 ^F/E/ F2 | G8 |] %20
w: in|gros- se fahr zum|todt er- ge- * * *|ben.|
w: ein|ne- wes eh- ren|lied zu- sin- * * *|gen.|
V:2
"^2)""^1)" d4 _e2 d2 | c2 B2 d2 G2 | A4 z4 | A4 =B2 c2 | c2 c2 f4- | f2 f2 d4 | z4 d4 | %7
w: Weil Gott sein|rach hat ge- hen|lahn,|so prei- set|ihn mit süs-|* sen thon,|die|
w: O Herr da|du ge- leg- ner|frist,|vom Solt mit|macht ausz- gan-|* gen bist,|zo-|
 B2 A2 A2 G2 | d2 B2 A4 | z4 A4 | c2 c2 d2 f2 | f2 d2 d4 | z4 f4 | f2 f2 d2 d2 | g3 f g2 f2 | %15
w: ihr von volck ausz|Is- ra- el,|habt|dar ge- stel- let|e- wer Seel,|habt|wil- lig e- wer|leib _ _ und|
w: gest duchs feld E-|dom da- her,|balt|sich die Erd be-|we- get sehr,|die|Him- mel sampt den|wol- * * cken|
"^-natural" f4 d4 | z4 f4 | g2 g2 a2 d2 | d2 d2 d4 | =B8 |] %20
w: le- ben,|in|gros- se fahr zum|todt er- ge-|ben.|
w: of- fen,|von|was- ser ü- ber-|flüs- sig trof-|fen.|
V:3
"^3)""^1)" G4 G2 B2 | A2 G2 B2 c2 | d4 z4 | d4 d2 e2 |"^-natural" f2 e2 d4 | c4 B4 | z4 B4 | %7
w: Weil Gott sein|rach hat ge- hen|lahn,|so prei- set|ihn mit süs-|sen thon,|die|
w: Die ho- hen|ber- ge stun- den|nicht|für Got- tes|stren- gen an-|ge- sicht,|sie|
 d2 d2 c2 B2 | A2 G2 ^F4 | z4 ^F4 | G2 A2 B2 B2 | c2 B2 A4 | z4 d4 | d2 c2 B4 | d4 _e2 d2 | c4 B4 | %16
w: ihr von volck ausz|Is- ra- el,|habt|dar ge- stel- let|e- wer Seel,|habt|wil- lig e-|wer leib und|le- ben,|
w: sind zer- flos- sen,|das ist war.|Der|Si- na- i er-|zit- tert gar,|für|die- sen star-|cken Gott und|Her- ren,|
 z4 d4 | G2 G2 ^F2 G2 | A2 B2 A4 | G8 |] %20
w: in|gros- se fahr zum|todt er- ge-|ben.|
w: den|mann in Is- ra-|el thut eh-|ren.|
V:4
"^4)""^1)""^5)" G,4 _E,2 B,,2 |"^b" F,2 G,2 G,2 E,2 | D,4 z4 | D,4 G,2 C2 | %4
w: Weil Gott sein|rach hat ge- hen|lahn,|so prei- set|
w: Bei zeit des|Sam- gar hoch- ge-|nant,|bei zeit der|
"^-natural" F,2 A,2 B,4 | F,4 B,,4 | z4 G,4 | G,2 D,2 F,2 G,2 | D,2 G,,2 D,4 | z4 D,4 | %10
w: ihn mit süs-|sen thon,|die|ihr von volck ausz|Is- ra- el,|habt|
w: Is- rael wol-|be- kant,|wa-|ren die weg ver-|wü- stet gar,|dasz|
"^-natural" C,2 F,2 B,,2 B,,2 | F,2 G,2 D,4 | z4 D,4 | F,2 F,2 G,4- | G,2 B,2 _E,2 B,,2 | %15
w: dar ge- stel- let|e- wer Seel,|habt|wil- lig e-|* wer leib und|
w: nicht dar- auff zu|ei- len war,|die|wan- ders leut|_ el- len- der|
"^-natural" F,4 B,,4 | z4 B,,4 | _E,2 E,2 D,2 G,2 | ^F,2 G,2 D,4 | G,,8 |] %20
w: le- ben,|in|gros- se fahr zum|todt er- ge-|ben.|
w: mas- sen,|gien-|gen ab- wegs auff|krum- men stras-|sen.|

